X: 4
T: la Bastringe #1
O: Qu\'ebec
R: reel
Z: John Chambers <jc:trillian.mit.edu>
M: C|
L: 1/8
K: D
|: "D"f2ff f2gf | "A7"e2c2 "D"d4 | "A7"c2d2 efec | "D"d2e2 f2d2 | "D"f2ff f2gf |
| "A7"e2c2 "D"d4 | "G"g2f2 e2d2 | "A7"B2c2 "D"d4 :: "D"~d2fd adfd | "C"~=c2ec gcec | "D"~d2fd adfa |
| "A7"bgec dcBA | "D"~d2fd adfd | "C"~=c2ec gcec | "D"~d2fd adfa | "A7"bgec "D"d4 :|

%%sep 1 1 500

